imgs/nationbuilder/nationbuilder_head.svg

<svg height="400" viewBox="0 0 1300 400" width="1300" xmlns="http://www.w3.org/2000/svg" xmlns:xlink="http://www.w3.org/1999/xlink"><mask id="a" fill="#fff"/><g fill="none" fill-rule="evenodd"><path d="m0 0h1300v400h-1300z" fill="#000" stroke="#979797"/><g fill-rule="nonzero"><path d="m-.04972558 48.9839636h453.09945158v-49.04989087h-453.09945158z" fill="#fff" mask="url(#a)" transform="translate(519 176)"/><g transform="translate(329 117)"><g transform="matrix(1 0 0 -1 0 166)"><path d="m83.0572159 0c29.6237341 0 56.9955501 15.8190037 71.8074181 41.5 14.811866 25.6809963 14.811866 57.3190037 0 83-14.811868 25.680996-42.183684 41.5-71.8074181 41.5-29.6237342 0-56.9955506-15.819004-71.8074177-41.5-14.81186714-25.6809963-14.81186714-57.3190037 0-83 14.8118671-25.6809963 42.1836835-41.5 71.8074177-41.5v7.96309963c-26.7812999 0-51.5279186 14.30295197-64.9200984 37.51845017-13.39217977 23.2154981-13.39217977 51.8214023 0 75.0369002 13.3921798 23.215498 38.1387985 37.51845 64.9200984 37.51845 26.7813001 0 51.5279181-14.302952 64.9200981-37.51845 13.39218-23.2154979 13.39218-51.8214021 0-75.0369002-13.39218-23.2154982-38.138798-37.51845017-64.9200981-37.51845017z" fill="#455a64" fill-opacity=".002"/><path d="m83.0572159 0c25.2331061 0 49.0954801 11.5005535 64.8283081 31.2490405l-6.220311 4.9646865c-14.22441-17.8526569-35.795091-28.25062737-58.6079971-28.25062737z" fill="#ce001b"/><path d="m147.885524 31.2490405c15.732828 19.7484872 21.625754 45.5948709 16.011258 70.2192255l-7.756266-1.7702586c5.075994-22.2629889-.250893-45.6316236-14.475303-63.4842804z" fill="#780011"/><path d="m163.896782 101.468266c-5.614496 24.624354-22.1306 45.352915-44.863955 56.311365l-3.451309-7.172915c20.55487-9.907934 35.483004-28.64572 40.558998-50.9087086z" fill="#6d7096"/><path d="m119.032827 157.779631c-22.7333552 10.958449-49.217867 10.958449-71.9512223 0l3.4513089-7.172915c20.5548695 9.907934 44.4937351 9.907934 65.0486044 0z" fill="#60bbd5"/><path d="m47.0816048 157.779631c-22.7333553-10.95845-39.24945908-31.687011-44.86395529-56.311365l7.75626587-1.7702586c5.07599412 22.2629886 20.00412872 41.0007746 40.55899822 50.9087086z" fill="#0f99be"/><path d="m2.21764951 101.468266c-5.61449621-24.6243546.27843006-50.4707383 16.01125819-70.2192255l6.220311 4.9646865c-14.2244103 17.8526568-19.55129743 41.2212915-14.47530332 63.4842804z" fill="#8c9d26"/><path d="m18.2289077 31.2490405c15.732828-19.748487 39.5952018-31.2490405 64.8283082-31.2490405v7.96309963c-22.8129068 0-44.383587 10.39797047-58.6079972 28.25062737z" fill="#fcd813"/></g><path d="m46.314 103.64625v-7.296696h14.4075435l4.6921388-27.030942h-14.2856823v-7.46253h15.5624202l3.818-23.382594h8.8267941l-3.984 23.382594h22.3812059l3.8179998-23.382594h8.81994l-3.818 23.382594h13.29964v7.46253h-14.573544l-4.692138 27.030942h14.451682v7.296696h-15.5648846l-3.984 23.880096h-8.6548975l3.984-23.880096h-22.3871025l-3.984 23.880096h-8.6482052l3.818-23.880096zm50.1528639-34.327638h-22.5543984l-4.3793294 27.030942h22.5543984z" fill="#fff"/></g></g></g></svg>

<?xml version="1.0" encoding="UTF-8"?>
<svg width="1300px" height="400px" viewBox="0 0 1300 400" version="1.1" xmlns="http://www.w3.org/2000/svg" xmlns:xlink="http://www.w3.org/1999/xlink">
    <!-- Generator: Sketch 58 (84663) - https://sketch.com -->
    <title>Artboard Copy</title>
    <desc>Created with Sketch.</desc>
    <defs>
        <path d="M0,1.97781818 L7.5582876,1.97781818 L32.4210757,33.8866182 L32.4210757,1.97781818 L40.4434687,1.97781818 L40.4434687,48.1269091 L33.6144896,48.1269091 L8.02239297,15.2951273 L8.02239297,48.1269091 L0,48.1269091 L0,1.97781818 Z M73.0634468,33.5569818 C72.0465587,33.1614182 70.842371,32.8317818 69.4500549,32.5680727 C68.0577387,32.3043636 66.588348,32.1725091 65.0410538,32.1725091 C62.5216246,32.1725091 60.554978,32.6562505 59.1402854,33.6229091 C57.7255928,34.5895677 57.0186608,35.9081132 57.0186608,37.5785455 L57.0186608,37.7104 C57.0186608,39.3808323 57.6708946,40.6548768 58.9745335,41.5341818 C60.2781723,42.4134868 61.8809934,42.8527273 63.7813392,42.8527273 C65.1073546,42.8527273 66.3339188,42.6771959 67.4610318,42.3253091 C68.5881449,41.9734223 69.5718825,41.4789677 70.411416,40.8419455 C71.2509495,40.2049232 71.9031833,39.4352223 72.3672887,38.5344909 C72.8313941,37.6337595 73.0634468,36.6333132 73.0634468,35.5348 L73.0634468,33.5569818 Z M72.8645445,48.1269091 L72.8645445,43.8416364 C71.6711306,45.2483595 70.146213,46.4350505 68.2897914,47.4017091 C66.4333699,48.3683677 64.1791438,48.8521091 61.5271131,48.8521091 C59.8472173,48.8521091 58.2559989,48.6213636 56.7534577,48.1598727 C55.2509166,47.6983818 53.9356751,47.0168586 52.808562,46.1161273 C51.681449,45.2153959 50.7756147,44.0946323 50.0902305,42.7538364 C49.4048463,41.4130405 49.0625686,39.8637495 49.0625686,38.1059636 L49.0625686,37.9741091 C49.0625686,36.0399677 49.416449,34.3588223 50.1233809,32.9306727 C50.8303128,31.5025232 51.8140505,30.3158323 53.0737651,29.3706 C54.3334797,28.4253677 55.8360209,27.7224182 57.5822173,27.2609273 C59.3284138,26.7994364 61.2179857,26.5686909 63.250933,26.5686909 C65.3725576,26.5686909 67.1734523,26.7005455 68.6544457,26.9642545 C70.1354391,27.2279636 71.5609056,27.5798505 72.9308452,28.0190909 L72.9308452,27.3598182 C72.9308452,24.9427595 72.1907629,23.0967959 70.7097695,21.8219273 C69.2287761,20.5470586 67.0963776,19.9100364 64.3117453,19.9100364 C62.3227223,19.9100364 60.554978,20.1078182 59.0076839,20.5033818 C57.4603897,20.8989455 55.8915477,21.4263636 54.3003293,22.0856364 L52.112404,15.6906909 C54.0575027,14.8113859 56.0465258,14.1084364 58.0794731,13.5810182 C60.1124204,13.0536 62.5655488,12.7898909 65.4388584,12.7898909 C70.6542426,12.7898909 74.5220637,14.0754727 77.0414929,16.6466364 C79.5609221,19.2178 80.8206367,22.8330868 80.8206367,27.4916727 L80.8206367,48.1269091 L72.8645445,48.1269091 Z M102.103183,48.7202545 C100.644566,48.7202545 99.2961745,48.5447232 98.0588364,48.1928364 C96.8214984,47.8409495 95.7490834,47.2698545 94.8432492,46.4787273 C93.9374149,45.6876 93.2412569,44.6434768 92.754775,43.3471818 C92.2682931,42.0508868 92.0254665,40.4356686 92.0254665,38.5015273 L92.0254665,20.1737455 L87.583315,20.1737455 L87.583315,13.3173091 L92.0254665,13.3173091 L92.0254665,3.75785455 L100.047859,3.75785455 L100.047859,13.3173091 L109.462569,13.3173091 L109.462569,20.1737455 L100.047859,20.1737455 L100.047859,37.2489091 C100.047859,38.7874868 100.423288,39.8967132 101.174973,40.5782364 C101.926658,41.2597595 102.98747,41.6001091 104.357409,41.6001091 C106.081229,41.6001091 107.738749,41.2045455 109.329967,40.4134182 L109.329967,46.9402182 C108.313079,47.5113132 107.230719,47.9513777 106.081229,48.2587636 C104.93174,48.5661495 103.605724,48.7202545 102.103183,48.7202545 Z M118.015368,48.1269091 L126.037761,48.1269091 L126.037761,13.3173091 L118.015368,13.3173091 L118.015368,48.1269091 Z M117.683864,7.9772 L126.302964,7.9772 L126.302964,0.395563636 L117.683864,0.395563636 L117.683864,7.9772 Z M153.287377,41.9956727 C154.922519,41.9956727 156.392739,41.699 157.696378,41.1056545 C159.000016,40.5123091 160.116356,39.7104686 161.044566,38.6993091 C161.972777,37.6881495 162.679709,36.5129959 163.166191,35.1722 C163.652673,33.8314041 163.895499,32.4139677 163.895499,30.9198909 L163.895499,30.7880364 C163.895499,29.2494586 163.630296,27.7990586 163.09989,26.4368364 C162.569484,25.0746141 161.829402,23.8879232 160.878814,22.8767636 C159.928227,21.8656041 158.801114,21.0637636 157.497475,20.4704182 C156.193836,19.8770727 154.745993,19.5804 153.154775,19.5804 C151.563557,19.5804 150.115714,19.8770727 148.812075,20.4704182 C147.508436,21.0637636 146.392097,21.8548909 145.463886,22.8438 C144.535675,23.8327091 143.828743,25.0086868 143.342261,26.3709091 C142.855779,27.7331314 142.612953,29.162105 142.612953,30.6561818 L142.612953,30.7880364 C142.612953,32.3266141 142.878156,33.7654768 143.408562,35.1062727 C143.938968,36.4470686 144.67905,37.6337595 145.629638,38.6663455 C146.580225,39.6989314 147.707338,40.5123091 149.010977,41.1056545 C150.314616,41.699 151.740082,41.9956727 153.287377,41.9956727 Z M153.154775,48.9180364 C150.502744,48.9180364 148.038842,48.4458323 145.762239,47.5006 C143.485637,46.5553677 141.51899,45.2697859 139.861471,43.6438545 C138.203952,42.0179232 136.911087,40.1060323 135.982876,37.9081818 C135.054665,35.7103314 134.59056,33.3814505 134.59056,30.9198909 L134.59056,30.7880364 C134.59056,28.2828 135.065439,25.9316686 136.016026,23.7338182 C136.966614,21.5359677 138.270252,19.6133636 139.927772,17.9651818 C141.585291,16.317 143.551937,15.0091677 145.82854,14.0425091 C148.105143,13.0758505 150.591422,12.5921091 153.287377,12.5921091 C155.983332,12.5921091 158.46961,13.0643132 160.746213,14.0095455 C163.022816,14.9547777 164.989462,16.2510727 166.646981,17.8992545 C168.304501,19.5474364 169.597366,21.4593273 170.525576,23.6349273 C171.453787,25.8105273 171.917892,28.1509455 171.917892,30.6561818 L171.917892,30.7880364 C171.917892,33.2495959 171.443013,35.5784768 170.492426,37.7763273 C169.541839,39.9741777 168.2382,41.8967818 166.580681,43.5449636 C164.923161,45.1931455 162.944912,46.5009777 160.646762,47.4676364 C158.348611,48.434295 155.85073,48.9180364 153.154775,48.9180364 Z M180.072887,13.3173091 L188.09528,13.3173091 L188.09528,18.7233455 C188.66961,17.8885414 189.299468,17.1081273 189.984852,16.3829273 C190.670236,15.6577273 191.465845,15.0091677 192.371679,14.4380727 C193.277514,13.8669777 194.272025,13.4162 195.355214,13.0865636 C196.438403,12.7569273 197.664967,12.5921091 199.034907,12.5921091 C203.012953,12.5921091 206.085165,13.8010505 208.250714,16.2181091 C210.416262,18.6351677 211.499451,21.8878545 211.499451,25.9753455 L211.499451,48.1269091 L203.477058,48.1269091 L203.477058,28.3487273 C203.477058,25.6234586 202.824824,23.5253232 201.521186,22.0526727 C200.217547,20.5800223 198.371899,19.8441091 195.985071,19.8441091 C193.642168,19.8441091 191.741822,20.6022727 190.283205,22.1186 C188.824588,23.6349273 188.09528,25.7553132 188.09528,28.4805818 L188.09528,48.1269091 L180.072887,48.1269091 L180.072887,13.3173091 Z M243.655324,40.9408364 C246.439956,40.9408364 248.627881,40.4134182 250.2191,39.3585818 C251.810318,38.3037455 252.605928,36.7214909 252.605928,34.6118182 L252.605928,34.4799636 C252.605928,32.5021455 251.821092,30.975105 250.25225,29.8980182 C248.683408,28.8209314 246.284978,28.2828 243.058617,28.2828 L230.129967,28.2828 L230.129967,40.9408364 L243.655324,40.9408364 Z M241.268496,21.4263636 C243.920527,21.4263636 246.042151,20.9096586 247.63337,19.8770727 C249.224588,18.8444868 250.020198,17.2729455 250.020198,15.1632727 L250.020198,15.0314182 C250.020198,13.1854545 249.32404,11.7457677 247.931723,10.7131818 C246.539407,9.68059591 244.517234,9.16389091 241.865203,9.16389091 L230.129967,9.16389091 L230.129967,21.4263636 L241.268496,21.4263636 Z M222.107574,1.97781818 L242.926015,1.97781818 C248.274001,1.97781818 252.318348,3.34004045 255.059056,6.06530909 C257.136756,8.131305 258.175192,10.6802182 258.175192,13.7128727 L258.175192,13.8447273 C258.175192,15.2514505 257.987064,16.4925314 257.611636,17.5696182 C257.236207,18.646705 256.749726,19.5911132 256.153019,20.4044909 C255.556312,21.2178686 254.84938,21.9315314 254.031394,22.5471273 C253.213408,23.1627232 252.384649,23.6901414 251.545115,24.1293818 C252.915055,24.6131232 254.163996,25.173505 255.291109,25.8105273 C256.418222,26.4475495 257.390357,27.2057132 258.208342,28.0850182 C259.026328,28.9643232 259.656186,29.9969091 260.097914,31.1836 C260.539643,32.3702909 260.760922,33.7547636 260.760922,35.3370182 L260.760922,35.4688727 C260.760922,37.5348686 260.352344,39.3585818 259.534358,40.9408364 C258.716372,42.5230909 257.556109,43.8416364 256.053568,44.8964727 C254.551026,45.9513091 252.738529,46.7531495 250.616905,47.3028182 C248.49528,47.8524868 246.152377,48.1269091 243.589023,48.1269091 L222.107574,48.1269091 L222.107574,1.97781818 Z M281.115258,48.8521091 C277.137212,48.8521091 274.065,47.6431677 271.899451,45.2261091 C269.733902,42.8090505 268.650714,39.5563636 268.650714,35.4688727 L268.650714,13.3173091 L276.673106,13.3173091 L276.673106,33.0954909 C276.673106,35.8207595 277.32534,37.918895 278.628979,39.3915455 C279.932618,40.8641959 281.778266,41.6001091 284.165093,41.6001091 C286.507997,41.6001091 288.408342,40.8419455 289.866959,39.3256182 C291.325576,37.8092909 292.054885,35.688905 292.054885,32.9636364 L292.054885,13.3173091 L300.077278,13.3173091 L300.077278,48.1269091 L292.054885,48.1269091 L292.054885,42.7208727 C290.905395,44.391305 289.469155,45.8301677 287.745335,47.0391091 C286.021515,48.2480505 283.811213,48.8521091 281.115258,48.8521091 Z M310.6191,48.1269091 L318.641493,48.1269091 L318.641493,13.3173091 L310.6191,13.3173091 L310.6191,48.1269091 Z M310.287596,7.9772 L318.906696,7.9772 L318.906696,0.395563636 L310.287596,0.395563636 L310.287596,7.9772 Z M329.58112,48.1269091 L337.603513,48.1269091 L337.603513,0 L329.58112,0 L329.58112,48.1269091 Z M364.455324,41.9297455 C365.781339,41.9297455 367.06343,41.6660364 368.300768,41.1386182 C369.538106,40.6112 370.621295,39.8530364 371.549506,38.8641273 C372.477717,37.8752182 373.217799,36.6992405 373.770582,35.3370182 C374.323364,33.9747959 374.599341,32.4584686 374.599341,30.7880364 L374.599341,30.6561818 C374.599341,28.9857495 374.323364,27.4587091 373.770582,26.0742364 C373.217799,24.6897636 372.477717,23.5137859 371.549506,22.5471273 C370.621295,21.5804686 369.538106,20.8330182 368.300768,20.3056 C367.06343,19.7781818 365.781339,19.5144727 364.455324,19.5144727 C363.085384,19.5144727 361.792519,19.7674686 360.576729,20.2726364 C359.360939,20.7778041 358.289352,21.5145414 357.361142,22.4812 C356.432931,23.4478586 355.703622,24.6238364 355.173216,26.0083091 C354.64281,27.3927818 354.377607,28.9420727 354.377607,30.6561818 L354.377607,30.7880364 C354.377607,32.4584686 354.64281,33.9855091 355.173216,35.3699818 C355.703622,36.7544545 356.432931,37.9304323 357.361142,38.8970909 C358.289352,39.8637495 359.360939,40.6112 360.576729,41.1386182 C361.792519,41.6660364 363.085384,41.9297455 364.455324,41.9297455 Z M362.532602,48.8521091 C360.454901,48.8521091 358.44433,48.4565455 356.499232,47.6654182 C354.554133,46.8742909 352.830313,45.7098505 351.327772,44.1712727 C349.825231,42.632695 348.60944,40.7430545 347.681229,38.5015273 C346.753019,36.26 346.288913,33.6888364 346.288913,30.7880364 L346.288913,30.6561818 C346.288913,27.7553818 346.742245,25.1842182 347.648079,22.9426909 C348.553913,20.7011636 349.75893,18.8115232 351.261471,17.2729455 C352.764012,15.7343677 354.499435,14.5699273 356.466081,13.7788 C358.432728,12.9876727 360.454901,12.5921091 362.532602,12.5921091 C365.405911,12.5921091 367.792739,13.207705 369.693085,14.4380727 C371.59343,15.6684405 373.184649,17.0974141 374.46674,18.7233455 L374.46674,0 L382.489133,0 L382.489133,48.1269091 L374.46674,48.1269091 L374.46674,42.3253091 C373.184649,44.1275959 371.582656,45.6653495 369.659934,46.9402182 C367.737212,48.2150868 365.361158,48.8521091 362.532602,48.8521091 Z M416.501427,28.2828 C416.368825,27.0079314 416.081246,25.8105273 415.639517,24.6897636 C415.197788,23.569 414.601081,22.6023414 413.849396,21.7889636 C413.097711,20.9755859 412.202651,20.3278505 411.164215,19.8441091 C410.125779,19.3603677 408.943139,19.1189091 407.617124,19.1189091 C405.141619,19.1189091 403.097898,19.9652505 401.484303,21.6571091 C399.870708,23.3489677 398.887799,25.5575314 398.533919,28.2828 L416.501427,28.2828 Z M408.545335,48.9180364 C406.025906,48.9180364 403.672228,48.4787959 401.484303,47.5994909 C399.296378,46.7201859 397.396032,45.4898182 395.782437,43.9075636 C394.168842,42.3253091 392.898353,40.4241314 391.970143,38.2048545 C391.041932,35.9855777 390.577827,33.5347314 390.577827,30.8539636 L390.577827,30.7221091 C390.577827,28.2168727 390.998008,25.8657414 391.837541,23.6678909 C392.677075,21.4700405 393.859715,19.5474364 395.384632,17.8992545 C396.90955,16.2510727 398.710445,14.9547777 400.788145,14.0095455 C402.865845,13.0643132 405.163996,12.5921091 407.683425,12.5921091 C410.468057,12.5921091 412.910412,13.0972768 415.00966,14.1084364 C417.108908,15.1195959 418.855104,16.4818182 420.24742,18.1959273 C421.639737,19.9100364 422.689775,21.8985677 423.396707,24.1623455 C424.103639,26.4261232 424.457519,28.8102182 424.457519,31.3154545 C424.457519,31.6673414 424.446745,32.0299414 424.424369,32.4032545 C424.401992,32.7765677 424.368842,33.1614182 424.324918,33.5569818 L398.60022,33.5569818 C399.041948,36.414105 400.180664,38.6004182 402.014709,40.1167455 C403.848754,41.6330727 406.06983,42.3912364 408.677936,42.3912364 C410.666959,42.3912364 412.390779,42.0393495 413.849396,41.3364 C415.308013,40.6334505 416.744254,39.6000405 418.158946,38.2378182 L422.866301,42.3912364 C421.186405,44.3690545 419.186608,45.9513091 416.866081,47.138 C414.545554,48.3246909 411.771696,48.9180364 408.545335,48.9180364 Z M432.546213,13.3173091 L440.568606,13.3173091 L440.568606,21.1626545 C441.673342,18.5255636 443.243013,16.4158909 445.27596,14.8336364 C447.308908,13.2513818 449.87309,12.5261818 452.96685,12.6580364 L452.96685,21.0967273 L452.502744,21.0967273 C450.735,21.0967273 449.121405,21.3826868 447.662788,21.9537818 C446.204171,22.5248768 444.944457,23.3819314 443.883644,24.5249455 C442.822832,25.6679595 442.004846,27.1068223 441.430516,28.8431818 C440.856186,30.5795414 440.568606,32.5903232 440.568606,34.8755273 L440.568606,48.1269091 L432.546213,48.1269091 L432.546213,13.3173091 Z" id="path-1"></path>
    </defs>
    <g id="Artboard-Copy" stroke="none" stroke-width="1" fill="none" fill-rule="evenodd">
        <rect id="Rectangle" stroke="#979797" fill="#000000" x="0" y="0" width="1300" height="400"></rect>
        <g id="nationbuilder-horizontal-white" transform="translate(329.000000, 117.000000)">
            <g id="NationBuilder" transform="translate(190.000000, 59.000000)">
                <g id="Fill-26-Clipped">
                    <mask id="mask-2" fill="white">
                        <use xlink:href="#path-1"></use>
                    </mask>
                    <g id="path-1"></g>
                    <polygon id="Fill-26" fill="#FFFFFF" fill-rule="nonzero" mask="url(#mask-2)" points="-0.0497255763 48.9839636 453.049726 48.9839636 453.049726 -0.0659272727 -0.0497255763 -0.0659272727"></polygon>
                </g>
            </g>
            <g id="Mark" fill-rule="nonzero">
                <g id="Circle" transform="translate(83.000000, 83.000000) scale(-1, 1) rotate(-180.000000) translate(-83.000000, -83.000000) ">
                    <path d="M83.0572159,0 C112.68095,0 140.052766,15.8190037 154.864634,41.5 C169.6765,67.1809963 169.6765,98.8190037 154.864634,124.5 C140.052766,150.180996 112.68095,166 83.0572159,166 C53.4334817,166 26.0616653,150.180996 11.2497982,124.5 C-3.56206894,98.8190037 -3.56206894,67.1809963 11.2497982,41.5 C26.0616653,15.8190037 53.4334817,0 83.0572159,0 L83.0572159,7.96309963 C56.275916,7.96309963 31.5292973,22.2660516 18.1371175,45.4815498 C4.74493773,68.6970479 4.74493773,97.3029521 18.1371175,120.51845 C31.5292973,143.733948 56.275916,158.0369 83.0572159,158.0369 C109.838516,158.0369 134.585134,143.733948 147.977314,120.51845 C161.369494,97.3029521 161.369494,68.6970479 147.977314,45.4815498 C134.585134,22.2660516 109.838516,7.96309963 83.0572159,7.96309963 L83.0572159,0 Z" id="Base-plate" fill-opacity="0.002" fill="#455A64"></path>
                    <path d="M83.0572159,0 C108.290322,0 132.152696,11.5005535 147.885524,31.2490405 L141.665213,36.213727 C127.440803,18.3610701 105.870122,7.96309963 83.0572159,7.96309963 L83.0572159,0 Z" id="Segment-1" fill="#CE001B"></path>
                    <path d="M147.885524,31.2490405 C163.618352,50.9975277 169.511278,76.8439114 163.896782,101.468266 L156.140516,99.6980074 C161.21651,77.4350185 155.889623,54.0663838 141.665213,36.213727 L147.885524,31.2490405 Z" id="Segment-2" fill="#780011"></path>
                    <path d="M163.896782,101.468266 C158.282286,126.09262 141.766182,146.821181 119.032827,157.779631 L115.581518,150.606716 C136.136388,140.698782 151.064522,121.960996 156.140516,99.6980074 L163.896782,101.468266 Z" id="Segment-3" fill="#6D7096"></path>
                    <path d="M119.032827,157.779631 C96.2994718,168.73808 69.81496,168.73808 47.0816047,157.779631 L50.5329136,150.606716 C71.0877831,160.51465 95.0266487,160.51465 115.581518,150.606716 L119.032827,157.779631 Z" id="Segment-4" fill="#60BBD5"></path>
                    <path d="M47.0816048,157.779631 C24.3482495,146.821181 7.83214572,126.09262 2.21764951,101.468266 L9.97391538,99.6980074 C15.0499095,121.960996 29.9780441,140.698782 50.5329136,150.606716 L47.0816048,157.779631 Z" id="Segment-5" fill="#0F99BE"></path>
                    <path d="M2.21764951,101.468266 C-3.3968467,76.8439114 2.49607957,50.9975277 18.2289077,31.2490405 L24.4492187,36.213727 C10.2248084,54.0663838 4.89792127,77.4350185 9.97391538,99.6980074 L2.21764951,101.468266 Z" id="Segment-6" fill="#8C9D26"></path>
                    <path d="M18.2289077,31.2490405 C33.9617357,11.5005535 57.8241095,0 83.0572159,0 L83.0572159,7.96309963 C60.2443091,7.96309963 38.6736289,18.3610701 24.4492187,36.213727 L18.2289077,31.2490405 Z" id="Segment-7" fill="#FCD813"></path>
                </g>
                <path d="M46.314,103.64625 L46.314,96.349554 L60.7215435,96.349554 L65.4136823,69.318612 L51.128,69.318612 L51.128,61.856082 L66.6904202,61.856082 L70.5084202,38.473488 L79.3352143,38.473488 L75.3512143,61.856082 L97.7324202,61.856082 L101.55042,38.473488 L110.37036,38.473488 L106.55236,61.856082 L119.852,61.856082 L119.852,69.318612 L105.278456,69.318612 L100.586318,96.349554 L115.038,96.349554 L115.038,103.64625 L99.4731154,103.64625 L95.4891154,127.526346 L86.8342179,127.526346 L90.8182179,103.64625 L68.4311154,103.64625 L64.4471154,127.526346 L55.7989102,127.526346 L59.6169102,103.64625 L46.314,103.64625 Z M96.4668639,69.318612 L73.9124655,69.318612 L69.5331361,96.349554 L92.0875345,96.349554 L96.4668639,69.318612 Z" id="Octothorpe" fill="#FFFFFF"></path>
            </g>
        </g>
    </g>
</svg>
